src/assets/icons/calendar-events,fancy,today.svg

<svg width="48" height="48" viewBox="0 0 48 48" fill="none" xmlns="http://www.w3.org/2000/svg">
<rect opacity="0.2" x="4" y="6" width="40" height="40" rx="4" fill="black"/>
<g opacity="0.4">
<path d="M10 4C10 2.89543 10.8954 2 12 2C13.1046 2 14 2.89543 14 4V8C14 9.10457 13.1046 10 12 10C10.8954 10 10 9.10457 10 8V4Z" fill="black"/>
<path d="M34 4C34 2.89543 34.8954 2 36 2C37.1046 2 38 2.89543 38 4V8C38 9.10457 37.1046 10 36 10C34.8954 10 34 9.10457 34 8V4Z" fill="black"/>
</g>
<path fill-rule="evenodd" clip-rule="evenodd" d="M10 6.00869C7.52043 6.04456 6.11466 6.22849 5.17157 7.17157C4 8.34315 4 10.2288 4 14V16H44V14C44 10.2288 44 8.34315 42.8284 7.17157C41.8853 6.22849 40.4796 6.04456 38 6.00869V8C38 9.10457 37.1046 10 36 10C34.8954 10 34 9.10457 34 8V6H14V8C14 9.10457 13.1046 10 12 10C10.8954 10 10 9.10457 10 8V6.00869Z" fill="black"/>
<path d="M15.9229 36.5L20.3121 40.6844C21.0847 41.4209 22.2995 41.4209 23.0721 40.6844L37.4813 26.9476C38.308 26.1596 38.308 24.8405 37.4813 24.0524L34.6106 21.3156C33.838 20.5791 32.6231 20.5791 31.8505 21.3156L15.9229 36.5Z" fill="black"/>
<path d="M21.6923 31.0004L15.9231 36.5004L10.5185 31.348C9.69183 30.5599 9.69183 29.2408 10.5185 28.4528L13.3892 25.716C14.1618 24.9795 15.3767 24.9795 16.1493 25.716L21.6923 31.0004Z" fill="black"/>
</svg>

<svg xmlns="http://www.w3.org/2000/svg" width="48" height="48" fill="none" viewBox="0 0 48 48">
  <rect width="40" height="40" x="4" y="6" fill="#000" opacity=".2" rx="4"/>
  <g opacity=".4">
    <path fill="#000" d="M10 4a2 2 0 114 0v4a2 2 0 11-4 0V4zM34 4a2 2 0 114 0v4a2 2 0 11-4 0V4z"/>
  </g>
  <path fill="#000" fill-rule="evenodd" d="M10 6.009c-2.48.036-3.885.22-4.828 1.163C4 8.343 4 10.229 4 14v2h40v-2c0-3.771 0-5.657-1.172-6.828-.943-.944-2.348-1.127-4.828-1.163V8a2 2 0 11-4 0V6H14v2a2 2 0 11-4 0V6.009z" clip-rule="evenodd"/>
  <path fill="#000" d="M15.923 36.5l4.39 4.184a2 2 0 002.76 0L37.48 26.948a2 2 0 000-2.896l-2.87-2.736a2 2 0 00-2.76 0L15.922 36.5z"/>
  <path fill="#000" d="M21.692 31l-5.769 5.5-5.405-5.152a2 2 0 010-2.895l2.871-2.737a2 2 0 012.76 0L21.692 31z"/>
</svg>
